icon/ir/frame-select.svg

<svg viewBox="0 0 24 24" stroke-width="1.5" fill="none" xmlns="http://www.w3.org/2000/svg" height="1em" width="1em">
  <path d="M4.9984 2H2V4.9984H4.9984V2Z" stroke="currentColor" stroke-miterlimit="1.5" stroke-linecap="round" stroke-linejoin="round"/>
  <path d="M4.99854 3.50098H18.9987" stroke="currentColor" stroke-miterlimit="1.5" stroke-linecap="round" stroke-linejoin="round"/>
  <path d="M3.5 4.99854V19.0005" stroke="currentColor" stroke-miterlimit="1.5" stroke-linecap="round" stroke-linejoin="round"/>
  <path d="M20.4978 5V19.002" stroke="currentColor" stroke-miterlimit="1.5" stroke-linecap="round" stroke-linejoin="round"/>
  <path d="M4.99854 20.501H18.9987" stroke="currentColor" stroke-miterlimit="1.5" stroke-linecap="round" stroke-linejoin="round"/>
  <path d="M4.9984 19H2V21.9984H4.9984V19Z" stroke="currentColor" stroke-miterlimit="1.5" stroke-linecap="round" stroke-linejoin="round"/>
  <path d="M21.9974 2.00195H18.999V5.00035H21.9974V2.00195Z" stroke="currentColor" stroke-miterlimit="1.5" stroke-linecap="round" stroke-linejoin="round"/>
  <path d="M21.9974 19.002H18.999V22.0004H21.9974V19.002Z" stroke="currentColor" stroke-miterlimit="1.5" stroke-linecap="round" stroke-linejoin="round"/>
  <path fill-rule="evenodd" clip-rule="evenodd" d="M10.9966 15.002L7.99658 8.00195L14.9966 11.002L11.9986 12.0009L10.9966 15.002Z" stroke="currentColor" stroke-miterlimit="1.5" stroke-linecap="round" stroke-linejoin="round"/>
  <path fill-rule="evenodd" clip-rule="evenodd" d="M11.999 12.002L14.997 15.002L11.999 12.002Z" stroke="currentColor" stroke-miterlimit="1.5" stroke-linecap="round" stroke-linejoin="round"/>
</svg>

<svg width="24" height="24" stroke-width="1.5" fill="none" xmlns="http://www.w3.org/2000/svg"><path d="M4.998 2H2v2.998h2.998V2ZM4.999 3.501h14M3.5 4.999V19M20.498 5v14.002M4.999 20.501h14M4.998 19H2v2.998h2.998V19ZM21.997 2.002H19V5h2.998V2.002ZM21.997 19.002H19V22h2.998v-2.998Z" stroke="currentColor" stroke-miterlimit="1.5" stroke-linecap="round" stroke-linejoin="round"/><path clip-rule="evenodd" d="m10.997 15.002-3-7 7 3-2.998.999-1.002 3.001Z" stroke="currentColor" stroke-miterlimit="1.5" stroke-linecap="round" stroke-linejoin="round"/><path clip-rule="evenodd" d="m11.999 12.002 2.998 3-2.998-3Z" stroke="currentColor" stroke-miterlimit="1.5" stroke-linecap="round" stroke-linejoin="round"/></svg>
